src/images_karasa_jaga_svg/cmd/32/drawcaption.svg

<svg height="32" viewBox="0 0 32 32" width="32" xmlns="http://www.w3.org/2000/svg" xmlns:xlink="http://www.w3.org/1999/xlink"><linearGradient id="a" gradientUnits="userSpaceOnUse" x1="7.387291" x2="120.61271" y1="64" y2="64"><stop offset="0" stop-color="#7c9fcf"/><stop offset=".5" stop-color="#7c9ece"/><stop offset="1" stop-color="#7b9dcf"/></linearGradient><linearGradient id="b" gradientTransform="matrix(0 1 -1.0760584 0 135.56824 0)" gradientUnits="userSpaceOnUse" x1="53.92849" x2="87.71418" y1="194.47232" y2="-39.260796"><stop offset="0" stop-color="#fff"/><stop offset=".42597079" stop-color="#fff"/><stop offset=".5892781" stop-color="#f1f1f1"/><stop offset=".80219781" stop-color="#eaeaea"/><stop offset="1" stop-color="#dfdfdf"/></linearGradient><g transform="matrix(0 -.25 .25 0 0 32)"><path d="m120.61271 64c-.00004-16.135082-4.50985-32.191238-12.60165-43.939453-8.091804-11.7482153-20.021478-19.18366155-32.481412-19.18359399-.0035-.00000386-.007-.00000386-.01055 0-8.922797.0176121-17.682917 3.81054189-24.778761 10.32421899-5.870286 5.388667-10.602301 12.673564-14.043402 20.96289-10.720004-3.956503-19.061644-8.507598-22.263054-14.34375-4.18874-2.694351-9.18393 2.186944-6.07804 5.939454 4.21887 8.858538 12.49752 24.714223 23.05962 27.800781-.59482 4.092287-.95507 8.250408-.96888 12.425781-.00001.0046-.00001.0091 0 .01367.00005 16.135082 4.509856 32.191239 12.601656 43.939452 8.091802 11.74822 20.021477 19.18366 32.481411 19.1836 12.459934.00006 24.389608-7.43538 32.481412-19.1836 8.0918-11.748211 12.60161-27.804368 12.60165-43.93945z" fill="url(#a)"/><path d="m116.15085 64c-.00008-32.571977-18.186814-58.9766837-40.621202-58.9765626-15.645892.0308824-29.888861 13.1053086-36.61751 33.6132816-10.250547-1.450627-18.604927-9.53783-27.021257-17.408203 5.62886 15.169819 14.84556 22.266982 24.165078 29.132812-.747197 4.465784-1.132315 9.043064-1.147515 13.638672.000084 32.571976 18.186817 58.97668 40.621204 58.97656 22.434387.00012 40.621122-26.404585 40.621202-58.97656z" fill="url(#b)"/></g><g fill="#06f" transform="matrix(.25 0 0 .25 .033085 31.98709)"><path d="m31.867661-100h57.912491v4.051645h-57.912491z"/><path d="m32-88h68.13234v4.170364h-68.13234z"/><path d="m31.867661-76h57.912483v3.999997h-57.912483z"/><path d="m32-64h68v4h-68z"/><path d="m32-52h57.912483v3.999997h-57.912483z"/></g></svg>

<?xml version="1.0" encoding="UTF-8" standalone="no"?>
<svg
   xmlns:dc="http://purl.org/dc/elements/1.1/"
   xmlns:cc="http://creativecommons.org/ns#"
   xmlns:rdf="http://www.w3.org/1999/02/22-rdf-syntax-ns#"
   xmlns:svg="http://www.w3.org/2000/svg"
   xmlns="http://www.w3.org/2000/svg"
   xmlns:xlink="http://www.w3.org/1999/xlink"
   xmlns:sodipodi="http://sodipodi.sourceforge.net/DTD/sodipodi-0.dtd"
   xmlns:inkscape="http://www.inkscape.org/namespaces/inkscape"
   height="128"
   viewBox="0 0 128 128"
   width="128"
   version="1.1"
   id="svg31"
   sodipodi:docname="drawcaption.svg"
   inkscape:export-filename="/home/rizmut/Dokumen/Rizmut/Github/libreoffice-style-karasa-jaga/build/images_karasa_jaga/cmd/32/drawcaption.png"
   inkscape:export-xdpi="24"
   inkscape:export-ydpi="24"
   inkscape:version="0.92.3 (unknown)">
  <metadata
     id="metadata37">
    <rdf:RDF>
      <cc:Work
         rdf:about="">
        <dc:format>image/svg+xml</dc:format>
        <dc:type
           rdf:resource="http://purl.org/dc/dcmitype/StillImage" />
        <dc:title />
      </cc:Work>
    </rdf:RDF>
  </metadata>
  <defs
     id="defs35">
    <linearGradient
       id="linearGradient7422">
      <stop
         style="stop-color:#7c9fcf;stop-opacity:1"
         offset="0"
         id="stop7424" />
      <stop
         id="stop5348"
         offset="0.5"
         style="stop-color:#7c9ece;stop-opacity:1" />
      <stop
         id="stop7426"
         offset="1"
         style="stop-color:#7b9dcf;stop-opacity:1" />
    </linearGradient>
    <linearGradient
       inkscape:collect="always"
       xlink:href="#linearGradient7422"
       id="linearGradient2997"
       x1="7.387291"
       y1="64"
       x2="120.61271"
       y2="64"
       gradientUnits="userSpaceOnUse" />
  </defs>
  <sodipodi:namedview
     pagecolor="#ffffff"
     bordercolor="#666666"
     borderopacity="1"
     objecttolerance="10"
     gridtolerance="10"
     guidetolerance="10"
     inkscape:pageopacity="0"
     inkscape:pageshadow="2"
     inkscape:window-width="1366"
     inkscape:window-height="706"
     id="namedview33"
     showgrid="true"
     inkscape:zoom="2.6074563"
     inkscape:cx="41.11644"
     inkscape:cy="68.38113"
     inkscape:window-x="0"
     inkscape:window-y="0"
     inkscape:window-maximized="1"
     inkscape:current-layer="svg31">
    <inkscape:grid
       type="xygrid"
       id="grid3559"
       spacingx="4"
       spacingy="4"
       empspacing="2" />
  </sodipodi:namedview>
  <linearGradient
     id="a"
     gradientTransform="matrix(0,1,-1.0760584,0,135.56824,0)"
     gradientUnits="userSpaceOnUse"
     x1="53.92849"
     x2="87.71418"
     y1="194.47232"
     y2="-39.260796">
    <stop
       offset="0"
       stop-color="#fff"
       id="stop2" />
    <stop
       offset=".42597079"
       stop-color="#fff"
       id="stop4" />
    <stop
       offset=".5892781"
       stop-color="#f1f1f1"
       id="stop6" />
    <stop
       offset=".80219781"
       stop-color="#eaeaea"
       id="stop8" />
    <stop
       offset="1"
       stop-color="#dfdfdf"
       id="stop10" />
  </linearGradient>
  <g
     transform="rotate(-90,64,64)"
     id="g17">
    <path
       style="fill:url(#linearGradient2997);fill-opacity:1.0"
       inkscape:connector-curvature="0"
       d="M 120.61271,64 C 120.61267,47.864918 116.10286,31.808762 108.01106,20.060547 99.919256,8.3123317 87.989582,0.87688545 75.529648,0.87695301 c -0.0035,-3.86e-6 -0.007,-3.86e-6 -0.01055,0 C 66.596301,0.89456511 57.836181,4.6874949 50.740337,11.201172 44.870051,16.589839 40.138036,23.874736 36.696935,32.164062 25.976931,28.207559 17.635291,23.656464 14.433881,17.820312 c -4.18874,-2.694351 -9.18393,2.186944 -6.07804,5.939454 4.21887,8.858538 12.49752,24.714223 23.05962,27.800781 -0.59482,4.092287 -0.95507,8.250408 -0.96888,12.425781 -10e-6,0.0046 -10e-6,0.0091 0,0.01367 5e-5,16.135082 4.509856,32.191239 12.601656,43.939452 8.091802,11.74822 20.021477,19.18366 32.481411,19.1836 12.459934,6e-5 24.389608,-7.43538 32.481412,-19.1836 C 116.10286,96.191239 120.61267,80.135082 120.61271,64 Z"
       id="path13" />
    <path
       inkscape:connector-curvature="0"
       style="fill:url(#a)"
       d="M 116.15085,64 C 116.15077,31.428023 97.964036,5.0233163 75.529648,5.0234374 59.883756,5.0543198 45.640787,18.128746 38.912138,38.636719 28.661591,37.186092 20.307211,29.098889 11.890881,21.228516 17.519741,36.398335 26.736441,43.495498 36.055959,50.361328 35.308762,54.827112 34.923644,59.404392 34.908444,64 c 8.4e-5,32.571976 18.186817,58.97668 40.621204,58.97656 C 97.964035,122.97668 116.15077,96.571975 116.15085,64 Z"
       id="path15" />
  </g>
  <g
     style="fill:#91bdff"
     transform="translate(0.132339,127.94836)"
     id="g29">
    <path
       inkscape:connector-curvature="0"
       d="m 31.867661,-100 h 57.912491 v 4.051645 H 31.867661 Z"
       id="path19"
       style="fill:#0066ff" />
    <path
       inkscape:connector-curvature="0"
       d="m 32,-88 h 68.13234 v 4.170364 H 32 Z"
       id="path21"
       style="fill:#0066ff" />
    <path
       inkscape:connector-curvature="0"
       d="m 31.867661,-76 h 57.912483 v 3.999997 H 31.867661 Z"
       id="path23"
       style="fill:#0066ff" />
    <path
       inkscape:connector-curvature="0"
       d="m 32,-64 h 68 v 4 H 32 Z"
       id="path25"
       style="fill:#0066ff" />
    <path
       inkscape:connector-curvature="0"
       d="m 32,-52 h 57.912483 v 3.999997 H 32 Z"
       id="path27"
       style="fill:#0066ff" />
  </g>
</svg>
